X: 419
M: C|
L: 1/8
K: F
c2 |\
f3e defd | g2 e4 fg | agfe fedc | c6 :|
|: e2 |\
f3g a2d2 | ^c2 A4 e2 | f2A2 f2ed | d4 d2cB |\

